X: 20511
T: John MacDonald's
R: reel
M: 4/4
K: Gmajor
E2 GE EGBG|cEBG cFFG|E2 GE EGBG|Ac (3Bcd eEED|
E2 GE EGBG|cEBG cFFG|E2 GE EGBG|Ac (3Bcd eEED|
E2 GE EGBG|Bc (3BAG cFFG|E2 GE EGBG|Ac (3Bcd eEED|
E2 GE EGBG|cEBG cFFG|E2 GE EGBG|Ac (3Bcd eEED|
eBce B2 AG|Ac (3BAG cF F2|eBce B2 AG|Ac (3Bcd eE E2|
eBce B2 AG|Ac (3BAG cF F2|ecdB cABG|Ac (3Bcd eE E2|
|:BegB e2Be|d2 Bd FAFD|1 BegB e2Be|fdAF GE E2:|2 BegB e2fg|fdAF GEE2||
~g3 e Be (3efe|d2 Bd FAFD|gfge Be (3efe|fdAF GEE2|
gfge Be (3efe|dfAd FAED|geBe fdAF|GEFA GEED||

